abugida-thai.svg

<svg fill="currentColor" viewBox="0 0 24 24"><path d="M9 20c0-2.56 1.87-7.58 4.86-12.75C14.29 6.5 15.08 6 16 6c1.12 0 2 .88 2 2v12h2V8c0-2.2-1.8-4-4-4-1.66 0-3.1.92-3.87 2.25-1.57 2.71-2.52 4.9-3.13 6.78V6.5C9 5.13 7.87 4 6.5 4S4 5.13 4 6.5 5.13 9 6.5 9c.17 0 .34 0 .5-.05V20M6.5 6c.29 0 .5.21.5.5s-.21.5-.5.5-.5-.21-.5-.5.21-.5.5-.5"/></svg>

<svg  viewBox="0 0 24 24" fill="currentColor"><path  d="M9 20C9 17.44 10.87 12.42 13.86 7.25C14.29 6.5 15.08 6 16 6C17.12 6 18 6.88 18 8V20H20V8C20 5.8 18.2 4 16 4C14.34 4 12.9 4.92 12.13 6.25C10.56 8.96 9.61 11.15 9 13.03V6.5C9 5.13 7.87 4 6.5 4C5.13 4 4 5.13 4 6.5C4 7.87 5.13 9 6.5 9C6.67 9 6.84 9 7 8.95V20M6.5 6C6.79 6 7 6.21 7 6.5C7 6.79 6.79 7 6.5 7C6.21 7 6 6.79 6 6.5C6 6.21 6.21 6 6.5 6Z"/></svg>
